X:1
T:There’s a Blessing at the Cross for Me
T:There’s a Blessing at the Cross for Me
T:John Robson Sweney
T:Frances Jane (Fanny) Crosby, 1882
T:Public Domain Courtesy of the Cyber Hymnal™
T:Public Domain Courtesy of the Cyber Hymnal™
C:John Robson Sweney
Z:Public Domain
Z:Courtesy of the Cyber Hymnal™
%%score ( 1 2 ) ( 3 4 )
L:1/8
Q:1/4=95
M:4/4
K:Eb
V:1 treble 
V:2 treble 
V:3 bass 
V:4 bass 
V:1
 [EG][FA] | [GB][GB][Ac][GB] [EG]2 [EF]E | [EG][GB][Ge][Bd] [Ac]2 [Ad][Ae] | %3
w: 1.~I have|laid my bur- den down Where the|crim- son wa- ters flow, There’s a|
w: 2.~I have|laid my bur- den down, And my|trou- bled heart is still, There’s a|
w: 3.~I have|laid my bur- den down: Oh, the|peace that fills my soul! There’s a|
w: 4.~I have|laid my bur- den down, And my|Sav- ior gives me rest, There’s a|
 [Ge][GB][GB][Ac] [GB]2 [EG]2 | [DF]6 [EG][FA] | [GB][GB][Ac][GB] [EG]2 [EF]E | %6
w: bless- ing at the cross for|me; I have|found a spring of joy That the|
w: bless- ing at the cross for|me; I am|learn- ing there by faith My Re-|
w: bless- ing at the cross for|me; I was|dead, but now I live, Since my|
w: bless- ing at the cross for|me; I can|pil- low now my head On His|
 [EG][GB][Ge][Bd] [Ac]2 [Ad][^Fe] | [Ge][GB][GB][EB] [DB]2 D2 | [B,E]6 ||"^Refrain" [EG]>[EG] | %10
w: world can ne- ver know, There’s a|bless- ing at the cross for|me.||
w: deem- er’s gra- cious will, There’s a|bless- ing at the cross for|me.||
w: Sav- ior made me whole, There’s a|bless- ing at the cross for|me.||
w: gen- tle, lov- ing breast, There’s a|bless- ing at the cross for|me.||
 [DF]2 D>F B2 [Fc]>[Fc] | [Fd]4 [FB]2 [Fd][Fd] | [Gf][Ge][Gd][Gc] [FB]2 =A2 | %13
w: |||
w: |||
w: |||
w: |||
 ([DB]4- [DB][FA])[EG][FA] | [GB][GB][Ac][GB] [EG]2 [EF]E | [EG][GB][Ge][Bd] [Ac]2 [Ad][^Fe] | %16
w: |||
w: |||
w: |||
w: |||
 [Ge][GB][GB][EB] [DB]2 D2 | [B,E]6 |] %18
w: ||
w: ||
w: ||
w: ||
V:2
 x2 | x7 E | x8 | x8 | x8 | x7 E | x8 | x6 D2 | x6 || x2 | x2 D>F B2 x2 | x8 | x6 (FE) | x8 | %14
 x7 E | x8 | x6 D2 | x6 |] %18
V:3
 [E,B,][E,B,] | [E,E][E,E][E,E][E,E] [E,B,]2 [E,A,][E,G,] | %2
w: ~ ~|~ ~ ~ ~ ~ ~ ~|
 [E,B,][E,B,][E,B,][G,E] [A,E]2 [A,C][A,C] | [E,B,][E,E][E,E][E,E] [E,E]2 [E,B,]2 | %4
w: ~ ~ ~ ~ ~ ~ ~|~ ~ ~ ~ ~ ~|
 B,6 [G,B,][F,B,] | [E,E][E,E][E,E][E,E] [E,B,]2 [E,A,][E,G,] | %6
w: ~ ~ ~|~ ~ ~ ~ ~ ~ ~|
 [E,B,][E,B,][E,B,][G,E] [A,E]2 [A,C][=A,C] | B,[B,E][B,,B,][B,,A,] [B,,F,]2 [B,,A,]2 | [E,G,]6 || %9
w: ~ ~ ~ ~ ~ ~ ~|~ ~ ~ ~ ~ ~|~|
 [E,B,]>[E,B,] | [B,,B,]2 D,>F, B,2 [F,=A,]>[F,A,] | B,4 [B,D]2 [B,,B,][B,,B,] | %12
w: Praise the|Lord! praise the Lord! Hal- le-|lu- jah! Still my|
 [E,B,][E,B,][E,B,][E,E] [F,D]2 [F,C]2 | [B,,B,]6 [E,B,][E,B,] | %14
w: hap- py, hap- py song shall|be; I have|
 [E,E][E,E][E,E][E,E] [E,B,]2 [E,A,][E,G,] | [E,B,][E,B,][E,B,][G,E] [A,E]2 [A,C][=A,C] | %16
w: found a spring of joy That the|world can ne- ver know, There’s a|
 B,[B,E][B,,B,][B,,A,] [B,,F,]2 [B,,A,]2 | [E,G,]6 |] %18
w: bless- ing at the cross for|me.|
V:4
 x2 | x8 | x8 | x8 | (B,4 B,A,) x2 | x8 | x8 | B, x7 | x6 || x2 | x2 D,>F, B,2 x2 | B,4 x4 | x8 | %13
 x8 | x8 | x8 | B, x7 | x6 |] %18

